assets/icons/phone_colored.svg

<svg width="512" height="512" xmlns="http://www.w3.org/2000/svg">
 <g>
  <title>Layer 1</title>
  <g id="svg_5">
   <g id="svg_1">
    <g id="svg_2">
     <path fill="#24356F" d="m183.85491,3.41287l144.29517,0c1.05176,0.43232 2.14197,0.76273 3.25788,0.9867c53.63948,5.6234 95.04483,50.02009 95.19447,102.7039c0.17957,99.11281 0.17957,198.22604 0,297.33971c-0.07055,48.23402 -34.58177,90.35169 -82.36819,101.06473c-5.30153,1.19338 -10.69282,2.06264 -16.03284,3.07921l-144.34647,0c-1.04747,-0.43148 -2.13472,-0.76192 -3.24675,-0.98712c-53.41949,-5.60279 -94.99458,-49.81255 -95.14488,-102.20972c-0.26721,-99.43568 -0.26721,-198.87474 0,-298.3163c0.19047,-48.02732 34.86139,-90.00671 82.35879,-100.59284c5.32076,-1.174 10.70182,-2.08158 16.03284,-3.06826l-0.00002,-0.00003zm200.62173,336.93086l0,-4.93349c0,-75.96797 0,-151.9347 0,-227.90228c0.05132,-2.64099 -0.12611,-5.28138 -0.53228,-7.89274c-5.77184,-32.83371 -31.0631,-54.26234 -65.23231,-54.5486c-41.92696,-0.3256 -83.85177,-0.24666 -125.76869,0c-40.75335,0.2073 -65.81482,32.81415 -65.54418,65.35177c0.62123,74.47782 0.20031,148.97545 0.20031,223.45327l0,6.42153l256.87715,0.0505l-0.00002,0.00003l0.00002,0.00003zm-257.57852,41.91983c0.74157,12.09585 0,23.97492 2.45518,35.16154c6.6936,30.23859 32.33611,49.33057 64.81265,49.45896c41.39551,0.15784 82.79019,0.06946 124.18484,0c4.00393,0.09683 8.01001,-0.20418 11.95409,-0.89872c44.37037,-9.01666 59.17188,-44.74227 53.34874,-83.72181l-256.7555,0l0.00002,0l-0.00002,0.00003z" id="svg_3"/>
     <path fill="#24B9EC" d="m277.04592,424.68432c0.12611,2.83294 -0.33989,5.65961 -1.36812,8.30737c-1.02824,2.64776 -2.59946,5.05975 -4.61103,7.08662c-2.01372,2.02684 -4.42934,3.62434 -7.09506,4.69565c-2.66572,1.07131 -5.52813,1.59328 -8.40548,1.53014c-2.8795,-0.06103 -5.71411,-0.70297 -8.33066,-1.88794c-2.61655,-1.18287 -4.9595,-2.88349 -6.88128,-4.9945c-1.92181,-2.11103 -3.38399,-4.5883 -4.29467,-7.27602c-0.91069,-2.68982 -1.25057,-5.53541 -1.00045,-8.35997c0.46602,-5.23867 2.93722,-10.10901 6.91551,-13.61969c3.97829,-3.51278 9.16438,-5.40283 14.50438,-5.28706c5.34214,0.11367 10.43845,2.22259 14.25855,5.90165c3.81795,3.67694 6.07323,8.64832 6.30839,13.90381l-0.00002,-0.00003l-0.00005,-0.00003z" id="svg_4"/>
    </g>
   </g>
  </g>
 </g>

</svg>

<svg width="512" height="512" viewBox="0 0 512 512" fill="none" xmlns="http://www.w3.org/2000/svg">
<path d="M183.855 3.41311H328.15C329.202 3.84543 330.292 4.17584 331.408 4.39981C385.047 10.0232 426.453 54.4199 426.602 107.104C426.782 206.217 426.782 305.33 426.602 404.443C426.532 452.677 392.02 494.795 344.234 505.508C338.933 506.702 333.541 507.571 328.201 508.587H183.855C182.807 508.156 181.72 507.825 180.608 507.6C127.188 501.997 85.6134 457.788 85.4631 405.391C85.1959 305.955 85.1959 206.516 85.4631 107.074C85.6536 59.0469 120.324 17.0675 167.822 6.48138C173.143 5.30738 178.524 4.3998 183.855 3.41312L183.855 3.41309V3.41311ZM384.476 340.344V335.41C384.476 259.443 384.476 183.476 384.476 107.508C384.528 104.867 384.35 102.227 383.944 99.6155C378.172 66.7817 352.881 45.3531 318.712 45.0669C276.785 44.7413 234.86 44.8202 192.943 45.0669C152.19 45.2742 127.128 77.881 127.399 110.419C128.02 184.896 127.599 259.394 127.599 333.872V340.293L384.476 340.344L384.476 340.344L384.476 340.344V340.344ZM126.898 382.264C127.639 394.36 126.898 406.239 129.353 417.425C136.047 447.664 161.689 466.756 194.166 466.884C235.561 467.042 276.956 466.954 318.351 466.884C322.355 466.981 326.361 466.68 330.305 465.986C374.675 456.969 389.477 421.243 383.653 382.264H126.898H126.898L126.898 382.264Z" fill="black"/>
<path d="M277.046 424.684C277.172 427.517 276.706 430.344 275.678 432.992C274.65 435.64 273.078 438.052 271.067 440.078C269.053 442.105 266.637 443.703 263.972 444.774C261.306 445.845 258.444 446.367 255.566 446.304C252.687 446.243 249.852 445.601 247.236 444.416C244.619 443.233 242.276 441.533 240.354 439.422C238.433 437.311 236.97 434.833 236.06 432.146C235.149 429.456 234.809 426.61 235.059 423.786C235.525 418.547 237.996 413.677 241.975 410.166C245.953 406.653 251.139 404.763 256.479 404.879C261.821 404.993 266.918 407.102 270.738 410.781C274.556 414.458 276.811 419.429 277.046 424.685V424.684L277.046 424.684Z" fill="black"/>
</svg>
